dist/assets/image/bike.svg

<svg width="132" height="132" viewBox="0 0 132 132" fill="none" xmlns="http://www.w3.org/2000/svg">
<path d="M23.616 99.99C14.8695 99.99 7.75452 92.8739 7.75452 84.1274C7.75452 77.8775 11.3891 72.4624 16.6551 69.8793L20.1809 60.7622C8.78174 62.4309 0 72.2721 0 84.1274C0 97.15 10.5945 107.744 23.616 107.744C32.4119 107.744 40.0989 102.91 44.1625 95.7602H34.3847C31.5538 98.3827 27.7702 99.99 23.616 99.99Z" fill="url(#paint0_linear)"/>
<path d="M112.94 60.9545L116.024 70.2328C120.92 72.9358 124.245 78.1494 124.245 84.1274C124.245 92.8739 117.13 99.99 108.384 99.99C99.6375 99.99 92.5225 92.8739 92.5225 84.1274C92.5225 81.79 93.0351 79.5704 93.9475 77.5703L91.8669 71.3103L85.6552 77.7073C85.0771 79.7497 84.7679 81.9028 84.7679 84.1284C84.7679 97.15 95.3614 107.744 108.384 107.744C121.406 107.744 132 97.15 132 84.1284C132 72.6638 123.789 63.0835 112.94 60.9545V60.9545Z" fill="url(#paint1_linear)"/>
<path d="M104.704 85.351C105.245 86.9765 106.759 88.0057 108.383 88.0057C108.788 88.0057 109.201 87.9423 109.607 87.8073C111.638 87.1316 112.739 84.9371 112.063 82.9048L95.1419 31.9889H106.376C106.771 31.9889 107.091 32.3102 107.091 32.7049C107.091 33.0987 106.771 33.42 106.376 33.42C104.235 33.42 102.499 35.1562 102.499 37.2972C102.499 39.4383 104.235 41.1745 106.376 41.1745C111.046 41.1745 114.845 37.3748 114.845 32.7049C114.845 28.0341 111.047 24.2344 106.376 24.2344H89.7681C88.5223 24.2344 87.3521 24.8326 86.624 25.8437C85.8949 26.8538 85.6955 28.1529 86.0892 29.3342L91.5003 45.6187H42.666L44.946 39.7243H50.8243C52.9654 39.7243 54.7016 37.9891 54.7016 35.847C54.7016 33.706 52.9654 31.9698 50.8243 31.9698H33.7523C31.6112 31.9698 29.875 33.706 29.875 35.847C29.875 37.9891 31.6112 39.7243 33.7523 39.7243H36.6315L33.5267 47.7517C33.5237 47.7578 33.5217 47.7638 33.5176 47.7698C33.4069 47.9934 33.3192 48.223 33.2538 48.4577L19.9996 82.7296C19.5384 83.922 19.6955 85.2654 20.4185 86.3199C21.1406 87.3743 22.337 88.0047 23.616 88.0047H63.1661C63.1802 88.0047 63.1933 88.0057 63.2074 88.0057C63.9969 88.0057 64.7935 87.765 65.4793 87.2675C65.5206 87.2373 65.5619 87.2061 65.6032 87.1749C65.7593 87.052 65.9023 86.9191 66.0342 86.7791L95.1993 56.749L104.704 85.351ZM29.2728 80.2502L38.1099 57.4005L55.4065 80.2502H29.2728ZM63.5699 78.1867L44.7879 53.3742H87.6673L63.5699 78.1867Z" fill="url(#paint2_linear)"/>
<defs>
<linearGradient id="paint0_linear" x1="44.1625" y1="84.074" x2="3.93358e-07" y2="84.074" gradientUnits="userSpaceOnUse">
<stop stop-color="#7080FA"/>
<stop offset="1" stop-color="#9CFCF8"/>
</linearGradient>
<linearGradient id="paint1_linear" x1="132" y1="84.1709" x2="84.7679" y2="84.1709" gradientUnits="userSpaceOnUse">
<stop stop-color="#7080FA"/>
<stop offset="1" stop-color="#9CFCF8"/>
</linearGradient>
<linearGradient id="paint2_linear" x1="114.845" y1="55.8766" x2="19.7388" y2="55.8766" gradientUnits="userSpaceOnUse">
<stop stop-color="#7080FA"/>
<stop offset="1" stop-color="#9CFCF8"/>
</linearGradient>
</defs>
</svg>

<svg xmlns="http://www.w3.org/2000/svg" width="132" height="132" fill="none"><path d="M23.616 100c-8.746 0-15.86-7.116-15.86-15.863 0-6.25 3.635-11.665 8.9-14.248l3.526-9.117C8.782 62.43 0 72.272 0 84.127c0 13.023 10.595 23.617 23.616 23.617 8.796 0 16.483-4.834 20.547-11.984h-9.778a15.8 15.8 0 0 1-10.769 4.23z" fill="url(#A)"/><path d="M112.94 60.955l3.084 9.278c4.896 2.703 8.22 7.917 8.22 13.895 0 8.747-7.115 15.863-15.86 15.863s-15.862-7.116-15.862-15.863a15.76 15.76 0 0 1 1.425-6.557l-2.08-6.26-6.212 6.397a23.54 23.54 0 0 0-.887 6.421c0 13.022 10.594 23.616 23.616 23.616S132 97.15 132 84.128c0-11.465-8.21-21.045-19.06-23.174z" fill="url(#B)"/><path d="M104.704 85.35a3.88 3.88 0 0 0 3.679 2.655c.405 0 .818-.063 1.224-.198a3.88 3.88 0 0 0 2.456-4.903L95.142 31.99h11.234c.395 0 .715.32.715.716s-.32.715-.715.715a3.88 3.88 0 0 0-3.877 3.877 3.88 3.88 0 0 0 3.877 3.877 8.48 8.48 0 0 0 8.469-8.47 8.48 8.48 0 0 0-8.469-8.471H89.768c-1.246 0-2.416.598-3.144 1.61s-.928 2.31-.535 3.49L91.5 45.62H42.666l2.28-5.894h5.878a3.88 3.88 0 0 0 3.877-3.877 3.88 3.88 0 0 0-3.877-3.877H33.752a3.88 3.88 0 0 0-3.877 3.877 3.88 3.88 0 0 0 3.877 3.877h2.88l-3.105 8.027c-.003.006-.005.012-.01.018a3.92 3.92 0 0 0-.264.688L20 82.73c-.46 1.192-.304 2.536.42 3.6s1.918 1.685 3.197 1.685l39.59.001a3.86 3.86 0 0 0 2.272-.738l.124-.093c.156-.123.3-.256.43-.396L95.2 56.75l9.505 28.602zm-75.43-5.1L38.1 57.4l17.297 22.85H29.273zm34.297-2.064L44.788 53.374h42.88L63.57 78.187z" fill="url(#C)"/><defs><linearGradient id="A" x1="44.163" y1="84.074" x2="0" y2="84.074" gradientUnits="userSpaceOnUse"><stop stop-color="#7080fa"/><stop offset="1" stop-color="#9cfcf8"/></linearGradient><linearGradient id="B" x1="132" y1="84.171" x2="84.768" y2="84.171" gradientUnits="userSpaceOnUse"><stop stop-color="#7080fa"/><stop offset="1" stop-color="#9cfcf8"/></linearGradient><linearGradient id="C" x1="114.845" y1="55.877" x2="19.739" y2="55.877" gradientUnits="userSpaceOnUse"><stop stop-color="#7080fa"/><stop offset="1" stop-color="#9cfcf8"/></linearGradient></defs></svg>
